app/assets/images/heroicons/micro/globe-americas.svg

<svg width="16" height="16" viewBox="0 0 16 16" fill="none" xmlns="http://www.w3.org/2000/svg">
<path fill-rule="evenodd" clip-rule="evenodd" d="M8 1C4.13401 1 1 4.13401 1 8C1 11.866 4.13401 15 8 15C11.866 15 15 11.866 15 8C15 4.13401 11.866 1 8 1ZM4.5 3.75716C3.2785 4.76595 2.5 6.29206 2.5 8C2.5 11.0376 4.96243 13.5 8 13.5C11.0376 13.5 13.5 11.0376 13.5 8C13.5 6.22633 12.6604 4.64874 11.357 3.643L10.7071 4.29289C10.5745 4.4255 10.5 4.60536 10.5 4.79289C10.5 5.18342 10.1834 5.5 9.79289 5.5H8.42692C8.03071 5.5 7.79439 5.94158 8.01416 6.27125L8.26445 6.64668C8.39902 6.84853 8.66283 6.91859 8.87981 6.8101C9.25018 6.62491 9.6975 6.6975 9.99031 6.99031L10.563 7.56298C10.8308 7.83082 10.9243 8.22698 10.8046 8.58632L9.79284 11.6215C9.6276 12.1172 9.10855 12.4021 8.60162 12.2754L8.25746 12.1894C7.8123 12.0781 7.5 11.6781 7.5 11.2192V10.9142C7.5 10.649 7.39464 10.3946 7.20711 10.2071L6.1 9.1C5.76863 8.76863 5.76863 8.23137 6.1 7.9C6.32091 7.67909 6.32091 7.32091 6.1 7.1L5.37868 6.37868C4.81607 5.81607 4.5 5.05301 4.5 4.25736V3.75716Z" fill="black"/>
</svg>

<svg xmlns="http://www.w3.org/2000/svg" viewBox="0 0 16 16" fill="currentColor" aria-hidden="true" data-slot="icon">
  <path fill-rule="evenodd" d="M8 1a7 7 0 1 0 0 14A7 7 0 0 0 8 1ZM4.5 3.757a5.5 5.5 0 1 0 6.857-.114l-.65.65a.707.707 0 0 0-.207.5c0 .39-.317.707-.707.707H8.427a.496.496 0 0 0-.413.771l.25.376a.481.481 0 0 0 .616.163.962.962 0 0 1 1.11.18l.573.573a1 1 0 0 1 .242 1.023l-1.012 3.035a1 1 0 0 1-1.191.654l-.345-.086a1 1 0 0 1-.757-.97v-.305a1 1 0 0 0-.293-.707L6.1 9.1a.849.849 0 0 1 0-1.2c.22-.22.22-.58 0-.8l-.721-.721A3 3 0 0 1 4.5 4.257v-.5Z" clip-rule="evenodd"/>
</svg>
